X: 10
T:Nant-y-Glyn
M:6/8
L:1/8
Q:130
S:Band y Brodyr
R:Jig
A:Wales
Z:brian_martin12345@yahoo.com
K:G
D|G2G GAB|c2AA2c|B2G GAB|A2FD2D|
G2G GAB|c2AA2c|BdG AGF|G3-G2:||
B|d2BG2G|e2cG2G|d2B GAB|A2FD2D|
G2G GAB|c2de2f|gedB2A|G3-G2:||
